X: 36494
T: September, The
R: reel
M: 4/4
K: Bminor
|:FB{Bc}BA BA{FG}FE|FDBA FE{EF}ED|~F3D EFDE|FDAF FE{EF}ED|
Fz2B {Bc}BAF{FG}E|FDBA FEFA|Bz{Bc}BA FBAF|EFDE FDD2:|
|:~F3E FABd|~B3A BdBA|~B3d ~B3d|{AB}AFDE FE{EF}ED|
FzFE FABd|1 ~B3A Bded|fz{g}fe {ef}edBA|FBBA F{EF}EDE:|2
~B3A Bddz|faef dB{Bc}BA|FB{cB}BA B2z2||

